!!! OTL: Berkowitz620
!!! Chapter: 1
!!! Section: V
!!! Page: 158
!!! Mode: 
!!! Encoder: AR
**kern
*staff1
=1-
!!pagebreak:original
*clefF4
*k[]
*C:
*M4/4
4BB-/
4A-\
4A-\
4An\
=2
2.F\
4E\
=3
4G\
4G-\
4.E-\
8C/
=4
2.D\
4r
=5
4BB-/
4F#\
4En\
4C/
=6
4Bn\
4B-\
2Fn\
=7
!!linebreak:original
4A-\
4G-\
4GGn/
4G-\
=8
4An\
4F#\
4GG#/
4F#\
=9
2B-\
4A-\
4G-\
=10
2.D\
4r
=11
2G\
4F\
4E-\
=12
2.C-/
4r
=13
!!linebreak:original
4G-\
4A-\
4A-\
4An\
=14
2F\
4F\
4A\
=15
2BB-/
4A-\
4An\
=16
2F\
2A-\
=17
1AAn
=18
2.AA-/
4r
==
*-
